X: 42325
T: Wee Man At The Loom, The
R: polka
M: 2/4
K: Amajor
|:c/d/|e2 f2|ec f2|ea A/G/A/B/|cB Bc/d/|
e2 f2|ec f2|ea A/G/A/B/|cA A:|
|:c/d/|e2 e>c|dB BA/B/|cc d/c/B/A/|=GB e>d|
cc d/c/B/A/|df ag/f/|ec B/c/d/e/|cA A:|

